X:167
T:The Chinise Dance
O:No167 William Clarke of Feltwell
N:Transcribed M. Humphreys May 2010.Sounds very much like The Chainess Dance from 
Hampshire Dance Tunes.Part B Bar 8 changed from EF# to GA - possible 
transcription error.Also B ends at bar 8 with comment Da Capo. I have 
written it out in full.
M:2/4
L:1/8
K:G
(d/c/)|Bgfe|d/e/d/c/ Bd|BdBd| cAAB| Ggfe| d/e/d/c/ Bd| Bd cA| G3:|/
 c/G/| FAFA |FA cB/A/| GBGB | GB d2| gg dB| gg dB| e/d/c/B/ c/B/A/G/ | FDD G/A/|/
Bgfe|d/e/d/c/ Bd|BdBd| cAAB| Ggfe| d/e/d/c/ Bd| Bd cA| G3||

